X:7924
T:The Eddystone light
C:anon.
O:England
Z:Transcribed by Frank Nordberg - http://www.musicaviva.com
F:http://abc.musicaviva.com/tunes/england/eddystone-light.abc
M:C
L:1/8
Q:1/4=250
K:C
"^Fast"zG|cccc GGGG|EEF2 G2GG|A2AA B2B2|(c2C2) C2z2|c2c2 G2G2|E2F2 G2z2|
A2AA BBBB|ccC2 C2z2|D2D2 (d3c)|B2G2 G2z2|G2GG G2AB|(c2C2) C2:|
W:
W:
W:  From Musica Viva - http://www.musicaviva.com
W:  the Internet center for free sheet music downloads.
